X: 03088
T: WILLIE'S WILD WHISTLE
C: Bob McQuillen 3 Oct 76
B: Bob's Note Book 03 #88
%R: reel
%D:1978
Z: 2020 John Chambers <jc:trillian.mit.edu>
M: C
L: 1/8
K: D	% and Bm
AB \
| dfed cedc | BABd AFDE | FBBA FEDE | FBBA B2AB |
| dfed cedc | BABd AFDE | FBBd AFDE | F2D2 D2  :|
|: dc \
| BFFE FEDE | FBBA B2de | fdBd fded | c2A2 A2dc |
| BFFE FEDE | FBBA Bcde | fdBd fgfe | d2B2 B2  :|
%%begintext align
%% For Bill and Anna Thomas
%% with Best Wishes always - I'm
%% wild about the way you play
%% that old black flute, Bill!
%%endtext

%%sep 1 1 500

%%sep 1 1 500

